icons/inkscape.svg

<?xml version="1.0" encoding="UTF-8" standalone="no"?>
<!-- Created with Inkscape (http://www.inkscape.org/) -->
<svg
   xmlns:dc="http://purl.org/dc/elements/1.1/"
   xmlns:cc="http://creativecommons.org/ns#"
   xmlns:rdf="http://www.w3.org/1999/02/22-rdf-syntax-ns#"
   xmlns:svg="http://www.w3.org/2000/svg"
   xmlns="http://www.w3.org/2000/svg"
   xmlns:sodipodi="http://sodipodi.sourceforge.net/DTD/sodipodi-0.dtd"
   xmlns:inkscape="http://www.inkscape.org/namespaces/inkscape"
   width="64"
   height="64"
   id="svg2"
   version="1.1"
   inkscape:version="0.46+devel"
   sodipodi:docname="inkscape.svg"
   sodipodi:version="0.32"
   inkscape:output_extension="org.inkscape.output.svg.inkscape">
  <defs
     id="defs4">
    <inkscape:perspective
       sodipodi:type="inkscape:persp3d"
       inkscape:vp_x="0 : 526.18109 : 1"
       inkscape:vp_y="0 : 1000 : 0"
       inkscape:vp_z="744.09448 : 526.18109 : 1"
       inkscape:persp3d-origin="372.04724 : 350.78739 : 1"
       id="perspective10" />
    <inkscape:perspective
       id="perspective2389"
       inkscape:persp3d-origin="372.04724 : 350.78739 : 1"
       inkscape:vp_z="744.09448 : 526.18109 : 1"
       inkscape:vp_y="0 : 1000 : 0"
       inkscape:vp_x="0 : 526.18109 : 1"
       sodipodi:type="inkscape:persp3d" />
    <inkscape:perspective
       id="perspective3812"
       inkscape:persp3d-origin="372.04724 : 350.78739 : 1"
       inkscape:vp_z="744.09448 : 526.18109 : 1"
       inkscape:vp_y="0 : 1000 : 0"
       inkscape:vp_x="0 : 526.18109 : 1"
       sodipodi:type="inkscape:persp3d" />
    <linearGradient
       id="linearGradient2315">
      <stop
         id="stop2317"
         offset="0"
         style="stop-color:#000000;stop-opacity:0;" />
      <stop
         id="stop2319"
         offset="1"
         style="stop-color:#000000;stop-opacity:0.57195574;" />
    </linearGradient>
    <linearGradient
       id="linearGradient4072">
      <stop
         id="stop4074"
         offset="0"
         style="stop-color:#000000;stop-opacity:1;" />
      <stop
         id="stop4076"
         offset="1"
         style="stop-color:#000000;stop-opacity:0;" />
    </linearGradient>
    <inkscape:perspective
       id="perspective22159"
       inkscape:persp3d-origin="64 : 42.666667 : 1"
       inkscape:vp_z="128 : 64 : 1"
       inkscape:vp_y="0 : 1000 : 0"
       inkscape:vp_x="0 : 64 : 1"
       sodipodi:type="inkscape:persp3d" />
    <inkscape:perspective
       id="perspective35328"
       inkscape:persp3d-origin="24 : 16 : 1"
       inkscape:vp_z="48 : 24 : 1"
       inkscape:vp_y="0 : 1000 : 0"
       inkscape:vp_x="0 : 24 : 1"
       sodipodi:type="inkscape:persp3d" />
  </defs>
  <sodipodi:namedview
     id="base"
     pagecolor="#ffffff"
     bordercolor="#666666"
     borderopacity="1.0"
     inkscape:pageopacity="0.0"
     inkscape:pageshadow="2"
     inkscape:zoom="4.5188543"
     inkscape:cx="-9.1479501"
     inkscape:cy="48.58169"
     inkscape:document-units="px"
     inkscape:current-layer="layer1"
     showgrid="true"
     inkscape:window-width="1440"
     inkscape:window-height="854"
     inkscape:window-x="0"
     inkscape:window-y="346"
     inkscape:window-maximized="0"
     showguides="true"
     inkscape:guide-bbox="true">
    <inkscape:grid
       type="xygrid"
       id="grid2816"
       empspacing="4"
       visible="true"
       enabled="true"
       snapvisiblegridlinesonly="true" />
  </sodipodi:namedview>
  <metadata
     id="metadata7">
    <rdf:RDF>
      <cc:Work
         rdf:about="">
        <dc:format>image/svg+xml</dc:format>
        <dc:type
           rdf:resource="http://purl.org/dc/dcmitype/StillImage" />
        <dc:title />
      </cc:Work>
    </rdf:RDF>
  </metadata>
  <g
     inkscape:label="Layer 1"
     inkscape:groupmode="layer"
     id="layer1"
     transform="translate(0,-988.36218)">
    <g
       transform="matrix(0.1612806,0,0,0.1665023,-25.947497,984.8053)"
       id="g839"
       style="opacity:1">
      <path
         id="droplet01"
         d="m 476.95792,339.17168 c 18.82405,3.76439 22.5905,16.94193 18.82405,20.70634 -3.76341,3.76538 -13.17547,7.52979 -20.70534,1.88212 -7.53185,-5.64653 -7.53185,-18.82407 1.88129,-22.58846 z"
         style="font-size:12px;fill:#000000;fill-opacity:1;fill-rule:evenodd;stroke-width:1pt" />
      <path
         id="droplet02"
         d="m 286.46194,340.42914 c -1.83424,0.48921 -17.15789,-12.71577 -29.29285,-6.59534 -12.13187,6.11956 -20.27633,19.82286 -8.94233,25.44602 11.33508,5.62316 19.43757,-0.86115 29.37437,-7.83863 9.9379,-6.97642 9.57933,-8.32059 8.86081,-11.01205 z"
         style="font-size:12px;fill:#000000;fill-opacity:1;fill-rule:evenodd;stroke-width:1pt" />
      <path
         id="droplet03"
         d="m 510.35756,306.92856 c 10.23738,-2.55977 33.88577,0 30.11932,15.05778 -3.76334,15.06172 -35.76391,9.41193 -56.47317,1.88522 -1.8823,-15.06073 21.52866,-15.73733 26.35385,-16.943 z"
         style="font-size:12px;fill:#000000;fill-opacity:1;fill-rule:evenodd;stroke-width:1pt" />
      <path
         id="mountainDroplet"
         d="m 359.2403,21.362537 c -11.31337,0 -22.6056,4.320558 -31.27474,12.989693 L 173.87387,188.41466 c -8.4969,8.49674 -12.76227,19.54347 -12.93118,30.63111 l -0.05851,0 c 0,0.03947 0.05658,0.07745 0.05851,0.11702 -0.00236,0.18609 -0.05851,0.36977 -0.05851,0.55586 l 0.2633,0 c 2.94912,11.22052 79.14951,25.52333 87.65118,34.02481 12.83905,12.83917 -49.23346,22.26805 -36.39456,35.10728 12.83906,12.83905 77.59023,24.84256 90.4305,37.6818 12.83908,12.83907 -26.2385,26.51035 -13.39928,39.34942 12.83907,12.83922 55.96669,-3.20939 48.15548,30.28002 17.33829,17.33828 53.51222,9.05882 77.73337,-8.27946 12.83906,-12.83907 -24.62937,-11.70675 -11.7902,-24.54584 12.83907,-12.83923 45.24731,-12.90848 72.55505,-43.62079 -10.99163,-17.09473 -46.98101,-24.37453 -34.14183,-37.21372 12.83906,-12.83906 37.79989,-6.31794 91.65925,-30.77738 26.29193,-11.94081 24.11992,-21.0102 24.01923,-32.00614 -0.00211,-0.23138 0,-0.43973 0,-0.67288 l -0.05851,0 C 557.3983,207.95812 553.10345,196.9114 544.60673,188.41466 L 390.54428,34.35223 C 381.87515,25.683095 370.55366,21.362537 359.2403,21.362537 z m -1.31652,20.040402 c 5.02949,0.131024 9.09163,3.965079 17.05628,9.127893 l 72.78909,53.977438 c 0.79681,0.51671 1.55569,1.05573 2.25272,1.60908 0.69703,0.55327 1.33373,1.1401 1.9309,1.72612 0.5972,0.58495 1.14004,1.17206 1.63834,1.78461 0.49726,0.61244 0.94845,1.23853 1.34577,1.8724 0.39844,0.6349 0.75476,1.27981 1.05322,1.93089 0.29867,0.65226 0.53281,1.32502 0.7314,1.98941 0.19976,0.66341 0.36832,1.31895 0.46811,1.98941 0.09988,0.67165 0.14627,1.34516 0.14627,2.01867 l -43.12343,-20.830311 -4.30065,32.562001 -23.72668,-11.11731 -36.62858,24.45807 -14.01366,-48.33101 -18.05098,42.275 -50.40821,5.03205 0.55587,-22.4394 c 0,-5.38972 29.05729,-43.122051 46.75119,-52.105048 l 32.38646,-23.258575 c 4.77873,-3.097693 8.12887,-4.35 11.14657,-4.271388 z m -66.9964,220.21039 c 22.94411,5.95032 48.47561,13.75705 68.95655,13.89664 l 0.87768,9.21566 c -17.53811,-1.80778 -54.64815,-10.27551 -63.39789,-14.74506 z"
         style="font-size:12px;fill:#000000;fill-opacity:1;fill-rule:evenodd;stroke-width:1pt" />
    </g>
  </g>
</svg>

<?xml version="1.0" encoding="UTF-8" standalone="no"?>
<!-- Created with Inkscape (http://www.inkscape.org/) -->
<svg
   xmlns:dc="http://purl.org/dc/elements/1.1/"
   xmlns:cc="http://creativecommons.org/ns#"
   xmlns:rdf="http://www.w3.org/1999/02/22-rdf-syntax-ns#"
   xmlns:svg="http://www.w3.org/2000/svg"
   xmlns="http://www.w3.org/2000/svg"
   xmlns:sodipodi="http://sodipodi.sourceforge.net/DTD/sodipodi-0.dtd"
   xmlns:inkscape="http://www.inkscape.org/namespaces/inkscape"
   width="64"
   height="64"
   id="svg2"
   version="1.1"
   inkscape:version="0.46"
   sodipodi:docname="inkscape.svg"
   sodipodi:version="0.32"
   inkscape:output_extension="org.inkscape.output.svg.inkscape">
  <defs
     id="defs4">
    <inkscape:perspective
       sodipodi:type="inkscape:persp3d"
       inkscape:vp_x="0 : 526.18109 : 1"
       inkscape:vp_y="0 : 1000 : 0"
       inkscape:vp_z="744.09448 : 526.18109 : 1"
       inkscape:persp3d-origin="372.04724 : 350.78739 : 1"
       id="perspective10" />
    <inkscape:perspective
       id="perspective2389"
       inkscape:persp3d-origin="372.04724 : 350.78739 : 1"
       inkscape:vp_z="744.09448 : 526.18109 : 1"
       inkscape:vp_y="0 : 1000 : 0"
       inkscape:vp_x="0 : 526.18109 : 1"
       sodipodi:type="inkscape:persp3d" />
    <inkscape:perspective
       id="perspective3812"
       inkscape:persp3d-origin="372.04724 : 350.78739 : 1"
       inkscape:vp_z="744.09448 : 526.18109 : 1"
       inkscape:vp_y="0 : 1000 : 0"
       inkscape:vp_x="0 : 526.18109 : 1"
       sodipodi:type="inkscape:persp3d" />
    <linearGradient
       id="linearGradient2315">
      <stop
         id="stop2317"
         offset="0"
         style="stop-color:#000000;stop-opacity:0;" />
      <stop
         id="stop2319"
         offset="1"
         style="stop-color:#000000;stop-opacity:0.57195574;" />
    </linearGradient>
    <linearGradient
       id="linearGradient4072">
      <stop
         id="stop4074"
         offset="0"
         style="stop-color:#000000;stop-opacity:1;" />
      <stop
         id="stop4076"
         offset="1"
         style="stop-color:#000000;stop-opacity:0;" />
    </linearGradient>
    <inkscape:perspective
       id="perspective22159"
       inkscape:persp3d-origin="64 : 42.666667 : 1"
       inkscape:vp_z="128 : 64 : 1"
       inkscape:vp_y="0 : 1000 : 0"
       inkscape:vp_x="0 : 64 : 1"
       sodipodi:type="inkscape:persp3d" />
    <inkscape:perspective
       id="perspective35328"
       inkscape:persp3d-origin="24 : 16 : 1"
       inkscape:vp_z="48 : 24 : 1"
       inkscape:vp_y="0 : 1000 : 0"
       inkscape:vp_x="0 : 24 : 1"
       sodipodi:type="inkscape:persp3d" />
  </defs>
  <sodipodi:namedview
     id="base"
     pagecolor="#ffffff"
     bordercolor="#666666"
     borderopacity="1.0"
     inkscape:pageopacity="0.0"
     inkscape:pageshadow="2"
     inkscape:zoom="4.5188543"
     inkscape:cx="17.296806"
     inkscape:cy="48.58169"
     inkscape:document-units="px"
     inkscape:current-layer="layer1"
     showgrid="true"
     inkscape:window-width="1440"
     inkscape:window-height="854"
     inkscape:window-x="-4"
     inkscape:window-y="-1"
     inkscape:window-maximized="0"
     showguides="true"
     inkscape:guide-bbox="true">
    <inkscape:grid
       type="xygrid"
       id="grid2816"
       empspacing="4"
       visible="true"
       enabled="true"
       snapvisiblegridlinesonly="true" />
  </sodipodi:namedview>
  <metadata
     id="metadata7">
    <rdf:RDF>
      <cc:Work
         rdf:about="">
        <dc:format>image/svg+xml</dc:format>
        <dc:type
           rdf:resource="http://purl.org/dc/dcmitype/StillImage" />
        <dc:title />
      </cc:Work>
    </rdf:RDF>
  </metadata>
  <g
     inkscape:label="Layer 1"
     inkscape:groupmode="layer"
     id="layer1"
     transform="translate(0,-988.36218)">
    <g
       transform="matrix(0.1584222,0,0,0.1635514,-25.013604,985.27201)"
       id="g839"
       style="opacity:0.66">
      <path
         id="droplet01"
         d="M 476.95792,339.17168 C 495.78197,342.93607 499.54842,356.11361 495.78197,359.87802 C 492.01856,363.6434 482.6065,367.40781 475.07663,361.76014 C 467.54478,356.11361 467.54478,342.93607 476.95792,339.17168 z"
         style="font-size:12px;fill:#000000;fill-opacity:1;fill-rule:evenodd;stroke-width:1pt" />
      <path
         id="droplet02"
         d="M 286.46194,340.42914 C 284.6277,340.91835 269.30405,327.71337 257.16909,333.8338 C 245.03722,339.95336 236.89276,353.65666 248.22676,359.27982 C 259.56184,364.90298 267.66433,358.41867 277.60113,351.44119 C 287.53903,344.46477 287.18046,343.1206 286.46194,340.42914 z"
         style="font-size:12px;fill:#000000;fill-opacity:1;fill-rule:evenodd;stroke-width:1pt" />
      <path
         id="droplet03"
         d="M 510.35756,306.92856 C 520.59494,304.36879 544.24333,306.92856 540.47688,321.98634 C 536.71354,337.04806 504.71297,331.39827 484.00371,323.87156 C 482.12141,308.81083 505.53237,308.13423 510.35756,306.92856 z"
         style="font-size:12px;fill:#000000;fill-opacity:1;fill-rule:evenodd;stroke-width:1pt" />
      <path
         id="mountainDroplet"
         d="M 359.2403,21.362537 C 347.92693,21.362537 336.6347,25.683095 327.96556,34.35223 L 173.87387,188.41466 C 165.37697,196.9114 161.1116,207.95813 160.94269,219.04577 L 160.88418,219.04577 C 160.88418,219.08524 160.94076,219.12322 160.94269,219.16279 C 160.94033,219.34888 160.88418,219.53256 160.88418,219.71865 L 161.14748,219.71865 C 164.0966,230.93917 240.29699,245.24198 248.79866,253.74346 C 261.63771,266.58263 199.5652,276.01151 212.4041,288.85074 C 225.24316,301.68979 289.99433,313.6933 302.8346,326.53254 C 315.67368,339.37161 276.5961,353.04289 289.43532,365.88196 C 302.27439,378.72118 345.40201,362.67257 337.5908,396.16198 C 354.92909,413.50026 391.10302,405.2208 415.32417,387.88252 C 428.16323,375.04345 390.6948,376.17577 403.53397,363.33668 C 416.37304,350.49745 448.78128,350.4282 476.08902,319.71589 C 465.09739,302.62116 429.10801,295.34136 441.94719,282.50217 C 454.78625,269.66311 479.74708,276.18423 533.60644,251.72479 C 559.89837,239.78398 557.72636,230.71459 557.62567,219.71865 C 557.62356,219.48727 557.62567,219.27892 557.62567,219.04577 L 557.56716,219.04577 C 557.3983,207.95812 553.10345,196.9114 544.60673,188.41466 L 390.54428,34.35223 C 381.87515,25.683095 370.55366,21.362537 359.2403,21.362537 z M 357.92378,41.402939 C 362.95327,41.533963 367.01541,45.368018 374.98006,50.530832 L 447.76915,104.50827 C 448.56596,105.02498 449.32484,105.564 450.02187,106.11735 C 450.7189,106.67062 451.3556,107.25745 451.95277,107.84347 C 452.54997,108.42842 453.09281,109.01553 453.59111,109.62808 C 454.08837,110.24052 454.53956,110.86661 454.93688,111.50048 C 455.33532,112.13538 455.69164,112.78029 455.9901,113.43137 C 456.28877,114.08363 456.52291,114.75639 456.7215,115.42078 C 456.92126,116.08419 457.08982,116.73973 457.18961,117.41019 C 457.28949,118.08184 457.33588,118.75535 457.33588,119.42886 L 414.21245,98.598549 L 409.9118,131.16055 L 386.18512,120.04324 L 349.55654,144.50131 L 335.54288,96.1703 L 317.4919,138.4453 L 267.08369,143.47735 L 267.63956,121.03795 C 267.63956,115.64823 296.69685,77.915899 314.39075,68.932902 L 346.77721,45.674327 C 351.55594,42.576634 354.90608,41.324327 357.92378,41.402939 z M 290.92738,261.61333 C 313.87149,267.56365 339.40299,275.37038 359.88393,275.50997 L 360.76161,284.72563 C 343.2235,282.91785 306.11346,274.45012 297.36372,269.98057 L 290.92738,261.61333 z"
         style="font-size:12px;fill:#000000;fill-opacity:1;fill-rule:evenodd;stroke-width:1pt" />
    </g>
  </g>
</svg>
